assets/images/icons/src/align-center.svg

<?xml version="1.0" encoding="utf-8"?>
<!-- Generated by IcoMoon.io -->
<!DOCTYPE svg PUBLIC "-//W3C//DTD SVG 1.1//EN" "http://www.w3.org/Graphics/SVG/1.1/DTD/svg11.dtd">
<svg version="1.1" xmlns="http://www.w3.org/2000/svg" xmlns:xlink="http://www.w3.org/1999/xlink" width="14" height="14" viewBox="0 0 14 14">
<path fill="#444444" d="M14 10.5v1q0 0.203-0.148 0.352t-0.352 0.148h-13q-0.203 0-0.352-0.148t-0.148-0.352v-1q0-0.203 0.148-0.352t0.352-0.148h13q0.203 0 0.352 0.148t0.148 0.352zM11 7.5v1q0 0.203-0.148 0.352t-0.352 0.148h-7q-0.203 0-0.352-0.148t-0.148-0.352v-1q0-0.203 0.148-0.352t0.352-0.148h7q0.203 0 0.352 0.148t0.148 0.352zM13 4.5v1q0 0.203-0.148 0.352t-0.352 0.148h-11q-0.203 0-0.352-0.148t-0.148-0.352v-1q0-0.203 0.148-0.352t0.352-0.148h11q0.203 0 0.352 0.148t0.148 0.352zM10 1.5v1q0 0.203-0.148 0.352t-0.352 0.148h-5q-0.203 0-0.352-0.148t-0.148-0.352v-1q0-0.203 0.148-0.352t0.352-0.148h5q0.203 0 0.352 0.148t0.148 0.352z"></path>
</svg>

<svg xmlns="http://www.w3.org/2000/svg" width="14" height="14" viewBox="0 0 14 14"><path fill="#444" d="M14 10.5v1q0 .203-.148.352T13.5 12H.5q-.203 0-.352-.148T0 11.5v-1q0-.203.148-.352T.5 10h13q.203 0 .352.148T14 10.5zm-3-3v1q0 .203-.148.352T10.5 9h-7q-.203 0-.352-.148T3 8.5v-1q0-.203.148-.352T3.5 7h7q.203 0 .352.148T11 7.5zm2-3v1q0 .203-.148.352T12.5 6h-11q-.203 0-.352-.148T1 5.5v-1q0-.203.148-.352T1.5 4h11q.203 0 .352.148T13 4.5zm-3-3v1q0 .203-.148.352T9.5 3h-5q-.203 0-.352-.148T4 2.5v-1q0-.203.148-.352T4.5 1h5q.203 0 .352.148T10 1.5z"/></svg>
